X:8364
T:Kaladar Hill Jig
R:Jig
C:Bruce Osborne  --  Apr.25 1997
M:6/8
L:1/8
K:A
ED|CB,C EDE|CB,C CB,A,|E/F/G/A/A Ace|a3/2a3/2 ac'a|!
ecA GAB|dcB G3/2B3/2|efe dcB|c3/2c3/2 cBA|!
CB,C EDE|CB,C CB,A,|E/F/G/A/A Ace|a3/2a3/2 ac'a|!
ecA GAB|dcB G3/2B3/2|efe dcB|A4:|!
|:e2|ac'a eae|cec Ace|E/F/G/A/A Ace|B3/2B3/2 BAB|!
gbg ege|dcd B3/2B3/2|efe dcB|c3/2c3/2 cBA|!
CB,C EDE|CB,C CB,A,|E/F/G/A/A Ace|a3/2a3/2 ac'a|!
ecA GAB|dcB G3/2B3/2|efe dcB|A4:|!
